X: 112
T:Rolling in the Ryegrass
T:Shannon Breeze, The
T:Shannon Breezes, The
M:C|
L:1/8
R:Reel
K:D
A2AF DFAF|G2BG dGBG|A2AF DFAF|GBAF E2DF|!
A2AF DFAF|G2BG dGBG|A2AF DFAF|GFAF E2D2|]!
ABde f2fd|g2ge fedB|ABde fefg|afdf e2dB|!
ABde f2fd|g2ge fedB|ABde fefg|afdf e2dB|]!
